src/assets/instagram.svg

<svg viewBox="0 0 48 48" fill="none">
  <g clip-path="url(#clip0)">
    <path d="M47.953 14.1121C47.8405 11.5617 47.4281 9.80831 46.8373 8.28897C46.2278 6.67623 45.2901 5.23235 44.0616 4.03204C42.8613 2.81305 41.4079 1.86584 39.8138 1.26587C38.2857 0.675059 36.5415 0.262625 33.991 0.150176C31.4216 0.0282037 30.6059 0 24.089 0C17.5721 0 16.7564 0.0282037 14.1964 0.140652C11.646 0.253101 9.8926 0.665902 8.37362 1.25635C6.76052 1.86584 5.31663 2.80353 4.11632 4.03204C2.89734 5.23235 1.9505 6.68575 1.35016 8.27982C0.759348 9.80831 0.346914 11.5522 0.234465 14.1026C0.112493 16.6721 0.0842896 17.4878 0.0842896 24.0047C0.0842896 30.5216 0.112493 31.3373 0.224942 33.8972C0.337391 36.4477 0.750191 38.2011 1.341 39.7204C1.9505 41.3331 2.89734 42.777 4.11632 43.9773C5.31663 45.1963 6.77004 46.1435 8.3641 46.7435C9.8926 47.3343 11.6365 47.7468 14.1873 47.8592C16.7468 47.972 17.5629 47.9999 24.0798 47.9999C30.5967 47.9999 31.4124 47.972 33.9724 47.8592C36.5228 47.7468 38.2762 47.3343 39.7951 46.7435C43.021 45.4963 45.5714 42.9459 46.8186 39.7204C47.4091 38.1919 47.8219 36.4477 47.9343 33.8972C48.0468 31.3373 48.075 30.5216 48.075 24.0047C48.075 17.4878 48.0654 16.6721 47.953 14.1121ZM43.6305 33.7097C43.5272 36.0539 43.1334 37.3198 42.8053 38.1637C41.9987 40.2548 40.3391 41.9144 38.248 42.721C37.4041 43.0492 36.129 43.4429 33.794 43.5459C31.2622 43.6587 30.5029 43.6865 24.0985 43.6865C17.694 43.6865 16.9252 43.6587 14.4026 43.5459C12.0584 43.4429 10.7926 43.0492 9.94864 42.721C8.90803 42.3364 7.96082 41.7269 7.192 40.9299C6.39497 40.1515 5.78547 39.2138 5.40088 38.1732C5.07269 37.3293 4.67893 36.0539 4.57601 33.7192C4.46319 31.1875 4.43536 30.4278 4.43536 24.0234C4.43536 17.6189 4.46319 16.8501 4.57601 14.3279C4.67893 11.9837 5.07269 10.7178 5.40088 9.87388C5.78547 8.8329 6.39497 7.88606 7.20152 7.11687C7.9795 6.31984 8.91719 5.71034 9.95816 5.32611C10.8021 4.99792 12.0775 4.60417 14.4122 4.50088C16.9439 4.38843 17.7036 4.36023 24.1076 4.36023C30.5216 4.36023 31.2809 4.38843 33.8035 4.50088C36.1477 4.60417 37.4136 4.99792 38.2575 5.32611C39.2981 5.71034 40.2453 6.31984 41.0141 7.11687C41.8112 7.89522 42.4207 8.8329 42.8053 9.87388C43.1334 10.7178 43.5272 11.9928 43.6305 14.3279C43.7429 16.8596 43.7711 17.6189 43.7711 24.0234C43.7711 30.4278 43.7429 31.178 43.6305 33.7097Z" fill="#438124"/>
    <path d="M24.089 11.6741C17.2817 11.6741 11.7585 17.1969 11.7585 24.0046C11.7585 30.8123 17.2817 36.3351 24.089 36.3351C30.8967 36.3351 36.4195 30.8123 36.4195 24.0046C36.4195 17.1969 30.8967 11.6741 24.089 11.6741ZM24.089 32.0031C19.6727 32.0031 16.0905 28.4212 16.0905 24.0046C16.0905 19.588 19.6727 16.0061 24.089 16.0061C28.5056 16.0061 32.0875 19.588 32.0875 24.0046C32.0875 28.4212 28.5056 32.0031 24.089 32.0031Z" fill="#438124"/>
    <path d="M39.786 11.1867C39.786 12.7764 38.4971 14.0653 36.9071 14.0653C35.3174 14.0653 34.0284 12.7764 34.0284 11.1867C34.0284 9.59669 35.3174 8.30811 36.9071 8.30811C38.4971 8.30811 39.786 9.59669 39.786 11.1867Z" fill="#438124"/>
  </g>
  <defs>
    <clipPath id="clip0">
      <rect fill="white"/>
    </clipPath>
  </defs>
</svg>

<svg viewBox="0 0 48 48">
  <g fill="#438124">
    <path d="M47.953 14.112c-.113-2.55-.525-4.304-1.116-5.823a11.714 11.714 0 00-2.775-4.257 11.813 11.813 0 00-4.248-2.766C38.286.676 36.54.263 33.99.15 31.421.028 30.606 0 24.089 0c-6.517 0-7.333.028-9.893.14-2.55.113-4.303.526-5.822 1.116a11.712 11.712 0 00-4.258 2.776A11.818 11.818 0 001.35 8.28C.76 9.808.347 11.552.234 14.103c-.122 2.57-.15 3.385-.15 9.902 0 6.517.028 7.332.14 9.892.113 2.55.526 4.304 1.117 5.823a11.837 11.837 0 002.775 4.257 11.813 11.813 0 004.248 2.767c1.529.59 3.272 1.003 5.823 1.115 2.56.113 3.376.14 9.893.14 6.517 0 7.332-.027 9.892-.14 2.55-.112 4.304-.525 5.823-1.116a12.277 12.277 0 007.024-7.023c.59-1.528 1.003-3.272 1.115-5.823.113-2.56.141-3.375.141-9.892 0-6.517-.01-7.333-.122-9.893zM43.63 33.71c-.103 2.344-.497 3.61-.825 4.454a7.963 7.963 0 01-4.557 4.557c-.844.328-2.119.722-4.454.825-2.532.113-3.291.14-9.695.14-6.405 0-7.174-.027-9.696-.14-2.345-.103-3.61-.497-4.454-.825a7.386 7.386 0 01-2.757-1.791 7.463 7.463 0 01-1.791-2.757c-.328-.844-.722-2.12-.825-4.454-.113-2.532-.14-3.291-.14-9.696 0-6.404.027-7.173.14-9.695.103-2.344.497-3.61.825-4.454a7.296 7.296 0 011.8-2.757 7.451 7.451 0 012.757-1.79c.844-.33 2.12-.723 4.454-.826 2.532-.113 3.292-.14 9.696-.14 6.414 0 7.173.027 9.695.14 2.345.103 3.61.497 4.455.825a7.38 7.38 0 012.756 1.79 7.46 7.46 0 011.791 2.758c.328.844.722 2.119.825 4.454.113 2.532.141 3.29.141 9.695s-.028 7.155-.14 9.687z"/>
    <path d="M24.089 11.674c-6.807 0-12.33 5.523-12.33 12.33 0 6.808 5.523 12.331 12.33 12.331 6.808 0 12.33-5.523 12.33-12.33 0-6.808-5.522-12.33-12.33-12.33zm0 20.33a8 8 0 01-7.998-8 8 8 0 117.998 7.999zM39.786 11.187a2.879 2.879 0 11-5.758 0 2.879 2.879 0 015.758 0z"/>
  </g>
  <defs>
    <clipPath id="clip0">
      <path fill="#fff" d="M0 0h48v48H0z"/>
    </clipPath>
  </defs>
</svg>
